X:3763
T:DANIEL WRIGHT'S HORNPIPE
B:John of the Greeny Cheshire Way
N: John Offord, Reproduced with permission
M:3/2
L:1/8
K:F
P:1
A4     GABG A2 GF |  E2 C4 F2 EFGE | A4     GABG cBcA | d2 D4    F2  E2 D2||
P:2
d2 _ed edcB A2 GF | =E2 C4 F2 EFGE | d2 _ed edcB ABcA | d2 D4    F2 =E2 D2||
P:3
f4     e2 d2 AB c2|  E2 C4 F2 EF G2| f4  e2 d2   ABcA | d2 D2 DE F2  E2 D2 |]
